build/static/img/icons/phone.svg

<svg width="10" height="10" viewBox="0 0 10 10" fill="none" xmlns="http://www.w3.org/2000/svg">
<g clip-path="url(#clip0_1377_1491)">
<path d="M7.60253 6.61467C7.27578 6.29216 6.86788 6.29216 6.54321 6.61467C6.29555 6.8602 6.0479 7.10572 5.8044 7.35541C5.7378 7.42408 5.68161 7.43864 5.60045 7.39287C5.4402 7.30547 5.26954 7.23473 5.11553 7.13902C4.39753 6.6875 3.79607 6.10697 3.2633 5.45362C2.99899 5.12903 2.76382 4.78155 2.5994 4.39037C2.56611 4.3113 2.57235 4.25928 2.63687 4.19478C2.88452 3.9555 3.12594 3.70997 3.36944 3.46444C3.70867 3.1232 3.70867 2.7237 3.36735 2.38038C3.17381 2.18479 2.98026 1.99337 2.78671 1.79778C2.58692 1.59803 2.38921 1.3962 2.18733 1.19853C1.86059 0.880174 1.45268 0.880175 1.12802 1.20061C0.87828 1.44613 0.638946 1.6979 0.385044 1.93927C0.149872 2.16191 0.0312454 2.43448 0.00627136 2.75283C-0.0332708 3.27094 0.0936803 3.75991 0.272661 4.2364C0.638946 5.22266 1.1967 6.09865 1.87308 6.90181C2.78671 7.98796 3.87724 8.8473 5.153 9.46736C5.7274 9.74617 6.32261 9.96049 6.96985 9.99586C7.41522 10.0208 7.80232 9.90847 8.11241 9.56099C8.32469 9.32378 8.56403 9.10739 8.78879 8.88059C9.12178 8.54351 9.12386 8.13569 8.79295 7.80277C8.39753 7.40535 8.00003 7.01001 7.60253 6.61467Z" fill="#3257A4"/>
<path d="M7.20508 4.9563L7.97303 4.82521C7.85232 4.11984 7.51933 3.48106 7.01361 2.97336C6.47875 2.43861 5.80237 2.10153 5.05732 1.9975L4.9491 2.76945C5.52558 2.8506 6.05003 3.11069 6.46418 3.52475C6.85544 3.91593 7.11143 4.41115 7.20508 4.9563Z" fill="#3257A4"/>
<path d="M8.40587 1.61881C7.51929 0.732418 6.39754 0.172701 5.15925 0L5.05103 0.771952C6.12075 0.921764 7.09057 1.40657 7.85644 2.1702C8.58277 2.89638 9.05935 3.81398 9.23209 4.82314L10 4.69205C9.79817 3.52268 9.24666 2.46151 8.40587 1.61881Z" fill="#3257A4"/>
</g>
<defs>
<clipPath id="clip0_1377_1491">
<rect width="10" height="10" fill="white"/>
</clipPath>
</defs>
</svg>

<svg width="10" height="10" fill="none" xmlns="http://www.w3.org/2000/svg"><g clip-path="url(#clip0_1377_1491)" fill="#3257A4"><path d="M7.603 6.615c-.327-.323-.735-.323-1.06 0-.247.245-.495.49-.739.74-.066.07-.122.084-.204.038-.16-.088-.33-.158-.484-.254-.718-.452-1.32-1.032-1.853-1.685A4.387 4.387 0 012.6 4.39c-.033-.079-.027-.13.038-.195.248-.24.489-.485.732-.73.34-.342.34-.741-.002-1.085l-.58-.582c-.2-.2-.398-.402-.6-.6-.326-.318-.734-.318-1.059.003-.25.245-.49.497-.743.738a1.206 1.206 0 00-.379.814c-.04.518.088 1.007.267 1.483.366.987.924 1.863 1.6 2.666a9.903 9.903 0 003.28 2.565c.574.28 1.17.493 1.817.529.445.025.832-.088 1.142-.435.213-.237.452-.454.677-.68.333-.337.335-.745.004-1.078-.395-.398-.793-.793-1.19-1.188zm-.398-1.659l.768-.13a3.431 3.431 0 00-.96-1.853 3.414 3.414 0 00-1.956-.975l-.108.771a2.653 2.653 0 011.515.756c.391.39.647.886.741 1.431zm1.201-3.337A5.663 5.663 0 005.159 0l-.108.772A4.91 4.91 0 017.856 2.17a4.905 4.905 0 011.376 2.653L10 4.692a5.702 5.702 0 00-1.594-3.073z"/></g><defs><clipPath id="clip0_1377_1491"><path fill="#fff" d="M0 0h10v10H0z"/></clipPath></defs></svg>
